X:1
T:Title
%%score ( 1 2 ) 3 { 4 | 5 }
L:1/8
Q:1/4=110
M:4/4
K:D
V:1 treble nm="Grand Piano, Soprano"
V:2 treble 
V:3 treble nm="French Horn, Art Thou Watching o�er Me?"
V:4 bass nm="Choir Pad, Staff-1"
V:5 bass 
V:1
 [DF]2 [EG]2 [=F^G]2 [^FA]2 | [GB]4 [FA]4 | [^DB]2 [FA]2 [EG]2 [DF]2 | [EG]6 z2 | %4
w: By~J.~Wesley~Hughes * * *||||
 [CE]2 [DF]2 [EG]2 [FA]2 | [Gc]4 [GB]4 | [Ac]2 [GB]2 [FA]2 [EG]2 | [DF]6 z2 | %8
w: ||||
 [DF]2 [EG]2 [=F^G]2 [^FA]2 | [Fd]4 [Ec]4 | [Ec]2 [DB]2 [C^A]2 [DB]2 | [^Ge]8 | %12
w: ||||
 [Bd]2 [Ac]2 [Ac]2 [GB]2 | [GB]2 [FA]2 [FA]2 [EG]2 | F6 E2 | D6 z2 | %16
w: ||||
[Q:1/4=105] [DF]>[EG] [GB]2 [FA]4 | [Fd]>[Ac] [Ac]2 [GB]4 | E>[^DF] [EA]2 [EG]2 [=DF]2 | %19
w: |||
 [GB]2 [FA]6 | [DF]>[EG] [GB]2 [FA]4 | [Fd]>[Ac] [Ac]2 [GB]4 | E>[^DF] [EA]2 [EG]2 [CF]2 | %23
w: ||||
 [A,E]2 [A,D]6- | [A,D]2 z2 z4 |] %25
w: ||
V:2
 x8 | x8 | x8 | x8 | x8 | x8 | x8 | x8 | x8 | x8 | x8 | x8 | x8 | x8 | D4 C4 | x8 | x8 | x8 | x8 | %19
 x8 | x8 | x8 | x8 | x8 | x8 |] %25
V:3
 [DF]2 [EG]2 [=F^G]2 [^FA]2 | z2 [B,DG]2 z2 [A,DF]2 | z2 [B,^DF]2 z2 [B,DF]2 | %3
 z2 [B,EG]2 [B,EG]2 [B,EG]2 | [CE]2 [DF]2 [EG]2 [FA]2 | z2 [A,CG]2 z2 [A,CG]2 | %6
 z2 [A,CG]2 z2 [A,CG]2 | z2 [A,DF]2 [A,DF]2 [A,DF]2 | [DF]2 [EG]2 [=F^G]2 [^FA]2 | %9
 z2 [DFB]2 z2 [CF^A]2 | z2 [DEB]2 [DEB]2 [DEB]2 | z2 [DE^G]2 [DEG]2 [DEG]2 | %12
 z2 [A,CG]2 z2 [A,CG]2 | z2 [A,DF]2 [=CDA]2 [B,EG]2 | z2 [A,DF]2 z2[K:bass] [G,CE]2 | %15
 z2 [F,A,D]2 [F,A,D]2 z2 | z8 | z8 | z8 | z8 | z8 | z8 | z8 | z8 | z8 |] %25
V:4
 D,6 z2 | D,4 D,4 | A,4 B,,4 | E,6 z2 | A,,8 | E,4 E,4 | A,,4 A,,4 | D,6 z2 | D,6 z2 | B,,4 F,4 | %10
 ^G,8 | E,8 | A,,4 A,,4 | D,4 F,,2 G,,2 | A,,4 A,,4 | D,6 z2 | A,>A, D2 D4 | A,>[K:treble]D D2 D4 | %18
 B,>B,[K:bass] B,2 A,2 A,2 | D2 D6 | A,>A,[K:treble] D2 D4 | A,>D D2 D4 | B,>B, B,2 B,2 A,2 | %23
 G,2 F,6- | F,2 z2 z4 |] %25
V:5
 D,,6 z2 | D,,4 D,,4 | z8 | E,,6 z2 | z8 | E,,4 E,,4 | z8 | D,,6 z2 | D,,6 z2 | z4 F,,4 | ^G,,8 | %11
 E,,8 | z8 | D,,4 z4 | z8 | D,,6 z2 | D,>D, D,2 D,4 | D,>F, G,2 G,4 | G,>F, E,2 C,2 D,2 | D,2 D,6 | %20
 D,>D, D,2 D,4 | D,>F, G,2 G,4 | G,>F, E,2 G,,2 A,,2 | A,,2 D,6- | D,2 z2 z4 |] %25

